dist/img/footer/social/telegram-hover.svg

<svg width="40" height="40" viewBox="0 0 40 40" fill="none" xmlns="http://www.w3.org/2000/svg">
<path d="M40 20C40 25.3043 37.8929 30.3914 34.1421 34.1421C30.3914 37.8929 25.3043 40 20 40C14.6957 40 9.60859 37.8929 5.85786 34.1421C2.10714 30.3914 0 25.3043 0 20C0 14.6957 2.10714 9.60859 5.85786 5.85786C9.60859 2.10714 14.6957 0 20 0C25.3043 0 30.3914 2.10714 34.1421 5.85786C37.8929 9.60859 40 14.6957 40 20ZM20.7175 14.765C18.7725 15.575 14.8825 17.25 9.0525 19.79C8.1075 20.165 7.61 20.535 7.565 20.895C7.49 21.5025 8.2525 21.7425 9.29 22.07L9.7275 22.2075C10.7475 22.54 12.1225 22.9275 12.835 22.9425C13.485 22.9575 14.2075 22.6925 15.005 22.1425C20.4525 18.465 23.265 16.6075 23.44 16.5675C23.565 16.5375 23.74 16.5025 23.855 16.6075C23.9725 16.71 23.96 16.9075 23.9475 16.96C23.8725 17.2825 20.88 20.0625 19.3325 21.5025C18.85 21.9525 18.5075 22.27 18.4375 22.3425C18.2834 22.5 18.1267 22.6551 17.9675 22.8075C17.0175 23.7225 16.3075 24.4075 18.005 25.5275C18.8225 26.0675 19.4775 26.51 20.13 26.955C20.84 27.44 21.55 27.9225 22.47 28.5275C22.7025 28.6775 22.9275 28.84 23.145 28.995C23.9725 29.585 24.72 30.115 25.6375 30.03C26.1725 29.98 26.725 29.48 27.005 27.98C27.6675 24.4375 28.97 16.765 29.27 13.6025C29.2883 13.3396 29.2774 13.0755 29.2375 12.815C29.214 12.6048 29.1122 12.4111 28.9525 12.2725C28.725 12.1155 28.4538 12.0341 28.1775 12.04C27.4275 12.0525 26.27 12.455 20.7175 14.765Z" fill="#F4972A"/>
</svg>

<svg width="40" height="40" fill="none" xmlns="http://www.w3.org/2000/svg"><path d="M40 20a20 20 0 1 1-40 0 20 20 0 0 1 40 0Zm-19.282-5.235c-1.945.81-5.835 2.485-11.665 5.025-.946.375-1.443.745-1.488 1.105-.075.608.687.848 1.725 1.175l.438.137c1.02.333 2.395.72 3.107.735.65.015 1.372-.25 2.17-.8 5.447-3.677 8.26-5.534 8.435-5.575.125-.03.3-.064.415.04.117.103.105.3.093.353-.076.322-3.068 3.102-4.616 4.543-.482.45-.825.767-.895.84-.154.157-.31.312-.47.465-.95.915-1.66 1.6.038 2.72.818.54 1.473.982 2.125 1.427.71.485 1.42.968 2.34 1.573.233.15.457.312.675.467.828.59 1.575 1.12 2.492 1.035.535-.05 1.088-.55 1.368-2.05.663-3.543 1.965-11.215 2.265-14.378a3.566 3.566 0 0 0-.032-.787.842.842 0 0 0-.285-.542 1.315 1.315 0 0 0-.776-.233c-.75.013-1.907.415-7.46 2.725Z" fill="#F4972A"/></svg>
